src/assets/card/owned.svg

<svg width="100" height="130" viewBox="0 0 100 130" fill="none" xmlns="http://www.w3.org/2000/svg">
<g id="owned">
<g id="sticker-minted">
<g id="sticker-minted_2">
<path id="Subtract" fill-rule="evenodd" clip-rule="evenodd" d="M35 26V18.6395L15 12.8256V26L25 30L35 26Z" fill="url(#paint0_linear_2104_7344)"/>
<g id="Subtract_2">
<path fill-rule="evenodd" clip-rule="evenodd" d="M16 25.323V13.1163L15 12.8256V26L25 30L35 26V18.6395L34 18.3488V25.323L25 28.923L16 25.323Z" fill="url(#paint1_linear_2104_7344)"/>
<path fill-rule="evenodd" clip-rule="evenodd" d="M16 25.323V13.1163L15 12.8256V26L25 30L35 26V18.6395L34 18.3488V25.323L25 28.923L16 25.323Z" fill="url(#paint2_linear_2104_7344)"/>
</g>
<path id="Subtract_3" fill-rule="evenodd" clip-rule="evenodd" d="M32 17.7674L18 13.6977V29L25 32L32 29V17.7674Z" fill="url(#paint3_linear_2104_7344)"/>
<path id="Subtract_4" fill-rule="evenodd" clip-rule="evenodd" d="M32 17.7675L31 17.4768V28.3406L25 30.912L19 28.3406V13.9884L18 13.6977V29L25 32L32 29V17.7675Z" fill="url(#paint4_linear_2104_7344)"/>
<g id="check">
<g id="check_circle" filter="url(#filter0_f_2104_7344)">
<path d="M24.44 24.22L23.58 23.36C23.5067 23.2867 23.4133 23.25 23.3 23.25C23.1867 23.25 23.0933 23.2867 23.02 23.36C22.9467 23.4333 22.91 23.5267 22.91 23.64C22.91 23.7533 22.9467 23.8467 23.02 23.92L24.16 25.06C24.24 25.14 24.3333 25.18 24.44 25.18C24.5467 25.18 24.64 25.14 24.72 25.06L26.98 22.8C27.0533 22.7267 27.09 22.6333 27.09 22.52C27.09 22.4067 27.0533 22.3133 26.98 22.24C26.9067 22.1667 26.8133 22.13 26.7 22.13C26.5867 22.13 26.4933 22.1667 26.42 22.24L24.44 24.22ZM25 27.5C24.4467 27.5 23.9267 27.395 23.44 27.185C22.9533 26.975 22.53 26.69 22.17 26.33C21.81 25.97 21.525 25.5467 21.315 25.06C21.105 24.5733 21 24.0533 21 23.5C21 22.9467 21.105 22.4267 21.315 21.94C21.525 21.4533 21.81 21.03 22.17 20.67C22.53 20.31 22.9533 20.025 23.44 19.815C23.9267 19.605 24.4467 19.5 25 19.5C25.5533 19.5 26.0733 19.605 26.56 19.815C27.0467 20.025 27.47 20.31 27.83 20.67C28.19 21.03 28.475 21.4533 28.685 21.94C28.895 22.4267 29 22.9467 29 23.5C29 24.0533 28.895 24.5733 28.685 25.06C28.475 25.5467 28.19 25.97 27.83 26.33C27.47 26.69 27.0467 26.975 26.56 27.185C26.0733 27.395 25.5533 27.5 25 27.5ZM25 26.7C25.8933 26.7 26.65 26.39 27.27 25.77C27.89 25.15 28.2 24.3933 28.2 23.5C28.2 22.6067 27.89 21.85 27.27 21.23C26.65 20.61 25.8933 20.3 25 20.3C24.1067 20.3 23.35 20.61 22.73 21.23C22.11 21.85 21.8 22.6067 21.8 23.5C21.8 24.3933 22.11 25.15 22.73 25.77C23.35 26.39 24.1067 26.7 25 26.7Z" fill="#BEEF18"/>
</g>
<path id="check_circle_2" d="M24.44 24.22L23.58 23.36C23.5067 23.2867 23.4133 23.25 23.3 23.25C23.1867 23.25 23.0933 23.2867 23.02 23.36C22.9467 23.4333 22.91 23.5267 22.91 23.64C22.91 23.7533 22.9467 23.8467 23.02 23.92L24.16 25.06C24.24 25.14 24.3333 25.18 24.44 25.18C24.5467 25.18 24.64 25.14 24.72 25.06L26.98 22.8C27.0533 22.7267 27.09 22.6333 27.09 22.52C27.09 22.4067 27.0533 22.3133 26.98 22.24C26.9067 22.1667 26.8133 22.13 26.7 22.13C26.5867 22.13 26.4933 22.1667 26.42 22.24L24.44 24.22ZM25 27.5C24.4467 27.5 23.9267 27.395 23.44 27.185C22.9533 26.975 22.53 26.69 22.17 26.33C21.81 25.97 21.525 25.5467 21.315 25.06C21.105 24.5733 21 24.0533 21 23.5C21 22.9467 21.105 22.4267 21.315 21.94C21.525 21.4533 21.81 21.03 22.17 20.67C22.53 20.31 22.9533 20.025 23.44 19.815C23.9267 19.605 24.4467 19.5 25 19.5C25.5533 19.5 26.0733 19.605 26.56 19.815C27.0467 20.025 27.47 20.31 27.83 20.67C28.19 21.03 28.475 21.4533 28.685 21.94C28.895 22.4267 29 22.9467 29 23.5C29 24.0533 28.895 24.5733 28.685 25.06C28.475 25.5467 28.19 25.97 27.83 26.33C27.47 26.69 27.0467 26.975 26.56 27.185C26.0733 27.395 25.5533 27.5 25 27.5ZM25 26.7C25.8933 26.7 26.65 26.39 27.27 25.77C27.89 25.15 28.2 24.3933 28.2 23.5C28.2 22.6067 27.89 21.85 27.27 21.23C26.65 20.61 25.8933 20.3 25 20.3C24.1067 20.3 23.35 20.61 22.73 21.23C22.11 21.85 21.8 22.6067 21.8 23.5C21.8 24.3933 22.11 25.15 22.73 25.77C23.35 26.39 24.1067 26.7 25 26.7Z" fill="#F5F1EE"/>
</g>
</g>
</g>
</g>
<defs>
<filter id="filter0_f_2104_7344" x="20.0857" y="18.5857" width="9.82857" height="9.82857" filterUnits="userSpaceOnUse" color-interpolation-filters="sRGB">
<feFlood flood-opacity="0" result="BackgroundImageFix"/>
<feBlend mode="normal" in="SourceGraphic" in2="BackgroundImageFix" result="shape"/>
<feGaussianBlur stdDeviation="0.457143" result="effect1_foregroundBlur_2104_7344"/>
</filter>
<linearGradient id="paint0_linear_2104_7344" x1="15" y1="15.7445" x2="35" y2="15.7445" gradientUnits="userSpaceOnUse">
<stop stop-color="#212121"/>
<stop offset="0.504" stop-color="#333333"/>
<stop offset="1" stop-color="#101010"/>
</linearGradient>
<linearGradient id="paint1_linear_2104_7344" x1="14.065" y1="21.4129" x2="35.3659" y2="21.4129" gradientUnits="userSpaceOnUse">
<stop stop-color="#AB750F"/>
<stop offset="0.516" stop-color="#D8A956"/>
<stop offset="1" stop-color="#AB750F"/>
</linearGradient>
<linearGradient id="paint2_linear_2104_7344" x1="14.065" y1="21.4129" x2="35.3659" y2="21.4129" gradientUnits="userSpaceOnUse">
<stop stop-color="#71A22A"/>
<stop offset="0.516" stop-color="#BEEF18"/>
<stop offset="1" stop-color="#71A22A"/>
</linearGradient>
<linearGradient id="paint3_linear_2104_7344" x1="18" y1="21.0988" x2="32" y2="21.0988" gradientUnits="userSpaceOnUse">
<stop stop-color="#212121"/>
<stop offset="0.504" stop-color="#333333"/>
<stop offset="1" stop-color="#101010"/>
</linearGradient>
<linearGradient id="paint4_linear_2104_7344" x1="17.3455" y1="22.8489" x2="32.2561" y2="22.8489" gradientUnits="userSpaceOnUse">
<stop stop-color="#71A22A"/>
<stop offset="0.516" stop-color="#BEEF18"/>
<stop offset="1" stop-color="#71A22A"/>
</linearGradient>
</defs>
</svg>

<svg xmlns="http://www.w3.org/2000/svg" width="100" height="130" fill="none" xmlns:v="https://vecta.io/nano"><g fill-rule="evenodd"><path d="M35 26v-7.36l-20-5.814V26l10 4 10-4z" fill="url(#B)"/><use href="#G" fill="url(#C)"/><use href="#G" fill="url(#D)"/><path d="M32 17.767l-14-4.07V29l7 3 7-3V17.767z" fill="url(#E)"/><path d="M32 17.768l-1-.291v10.864l-6 2.571-6-2.571V13.988l-1-.291V29l7 3 7-3V17.768z" fill="url(#F)"/></g><g filter="url(#A)"><use href="#H" fill="#beef18"/></g><use href="#H" fill="#f5f1ee"/><defs><filter id="A" x="20.086" y="18.586" width="9.829" height="9.829" filterUnits="userSpaceOnUse" color-interpolation-filters="sRGB"><feFlood flood-opacity="0"/><feBlend in="SourceGraphic"/><feGaussianBlur stdDeviation=".457"/></filter><linearGradient id="B" x1="15" y1="15.745" x2="35" y2="15.745" href="#I"><stop stop-color="#212121"/><stop offset=".504" stop-color="#333"/><stop offset="1" stop-color="#101010"/></linearGradient><linearGradient id="C" x1="14.065" y1="21.413" x2="35.366" y2="21.413" href="#I"><stop stop-color="#ab750f"/><stop offset=".516" stop-color="#d8a956"/><stop offset="1" stop-color="#ab750f"/></linearGradient><linearGradient id="D" x1="14.065" y1="21.413" x2="35.366" y2="21.413" href="#I"><stop stop-color="#71a22a"/><stop offset=".516" stop-color="#beef18"/><stop offset="1" stop-color="#71a22a"/></linearGradient><linearGradient id="E" x1="18" y1="21.099" x2="32" y2="21.099" href="#I"><stop stop-color="#212121"/><stop offset=".504" stop-color="#333"/><stop offset="1" stop-color="#101010"/></linearGradient><linearGradient id="F" x1="17.346" y1="22.849" x2="32.256" y2="22.849" href="#I"><stop stop-color="#71a22a"/><stop offset=".516" stop-color="#beef18"/><stop offset="1" stop-color="#71a22a"/></linearGradient><path id="G" d="M16 25.323V13.116l-1-.291V26l10 4 10-4v-7.36l-1-.291v6.974l-9 3.6-9-3.6z"/><path id="H" d="M24.44 24.22l-.86-.86a.38.38 0 0 0-.28-.11.38.38 0 0 0-.39.39.38.38 0 0 0 .11.28l1.14 1.14c.08.08.173.12.28.12s.2-.04.28-.12l2.26-2.26a.38.38 0 0 0 .11-.28.38.38 0 0 0-.39-.39.38.38 0 0 0-.28.11l-1.98 1.98zM25 27.5c-.553 0-1.073-.105-1.56-.315a4.04 4.04 0 0 1-2.125-2.125c-.21-.487-.315-1.007-.315-1.56s.105-1.073.315-1.56a4.04 4.04 0 0 1 2.125-2.125c.487-.21 1.007-.315 1.56-.315s1.073.105 1.56.315a4.04 4.04 0 0 1 2.125 2.125c.21.487.315 1.007.315 1.56s-.105 1.073-.315 1.56a4.04 4.04 0 0 1-2.125 2.125c-.487.21-1.007.315-1.56.315zm0-.8c.893 0 1.65-.31 2.27-.93s.93-1.377.93-2.27-.31-1.65-.93-2.27-1.377-.93-2.27-.93-1.65.31-2.27.93-.93 1.377-.93 2.27.31 1.65.93 2.27 1.377.93 2.27.93z"/><linearGradient id="I" gradientUnits="userSpaceOnUse"/></defs></svg>
